material/.icons/material/email-open-multiple.svg

<svg xmlns="http://www.w3.org/2000/svg" viewBox="0 0 24 24"><path d="M6 8l8 5 8-5-8-5-8 5m18 0v10a2 2 0 01-2 2H6a2 2 0 01-2-2V8c0-.73.39-1.36.97-1.71L14 .64l9.03 5.65c.58.35.97.98.97 1.71M2 8v14h18v2H2a2 2 0 01-2-2V8h2z"/></svg>

<?xml version="1.0" encoding="UTF-8"?><!DOCTYPE svg PUBLIC "-//W3C//DTD SVG 1.1//EN" "http://www.w3.org/Graphics/SVG/1.1/DTD/svg11.dtd"><svg xmlns="http://www.w3.org/2000/svg" xmlns:xlink="http://www.w3.org/1999/xlink" version="1.1" id="mdi-email-open-multiple" width="24" height="24" viewBox="0 0 24 24"><path d="M6,8L14,13L22,8V8L14,3L6,8V8M24,8V18A2,2 0 0,1 22,20H6A2,2 0 0,1 4,18V8C4,7.27 4.39,6.64 4.97,6.29L14,0.64L23.03,6.29C23.61,6.64 24,7.27 24,8M2,8V22H20V24H2A2,2 0 0,1 0,22V8H2Z" /></svg>
